X:67
T:The Tempest
R:reel
Z:Transcribed by Dave Marshall
M:C|
K:Ddor
|: d2cA G~E3 | DEcE dEcE | d2cA G~E3 | EDCD EDD2 |
d2cA G~E3 | DEcE dEcE | DEFA GEcE | EDCD EDD2 :|
|: A~d3 cAGc | AdcA GED2 | d2 ~d2 cdef | edcA d2ag |
eage dcAB | cAGc AEGE | DEFA GEcE | EDCD EDD2 :|
